packages/icons/svg/Fill/chevron-left.svg

<svg width="24" height="24" viewBox="0 0 24 24" fill="none" xmlns="http://www.w3.org/2000/svg">
<g id="Icon/Fill/chevron-left">
<path id="Mask" fill-rule="evenodd" clip-rule="evenodd" d="M13.3623 17C13.1003 17 12.8393 16.898 12.6433 16.695L8.78028 12.695C8.40228 12.302 8.40728 11.679 8.79328 11.293L12.7933 7.29301C13.1833 6.90201 13.8163 6.90201 14.2073 7.29301C14.5973 7.68401 14.5973 8.31601 14.2073 8.70701L10.9023 12.012L14.0813 15.305C14.4653 15.703 14.4543 16.336 14.0573 16.719C13.8623 16.907 13.6123 17 13.3623 17Z" fill="#000000"/>
</g>
</svg>

<svg fill="none" height="24" viewBox="0 0 24 24" width="24" xmlns="http://www.w3.org/2000/svg"><path clip-rule="evenodd" d="m13.3623 17c-.262 0-.523-.102-.719-.305l-3.86302-4c-.378-.393-.373-1.016.013-1.402l4.00002-3.99999c.39-.391 1.023-.391 1.414 0 .39.391.39 1.023 0 1.414l-3.305 3.30499 3.179 3.293c.384.398.373 1.031-.024 1.414-.195.188-.445.281-.695.281" fill="#6b7280" fill-rule="evenodd"/></svg>
